X:1
T:James Gibb editions
T:S'un sguardo un fa beato - Palestrina
T:#
%%score [ 1 2 3 4 ]
L:1/8
Q:1/4=108
M:2/2
K:Bb
V:1 treble nm="Soprano" snm="S"
V:2 treble nm="Alto" snm="A"
V:3 treble-8 nm="Tenor" snm="T"
V:4 bass nm="Bass" snm="B"
V:1
"^Alfonso D'Avalos\n(1502-46)""^Giovanni Pierluigi da Palestrina\n(1525-94)""^S'un sguardo un fa beato" G8 | %1
w: S'un|
 c8 | B4 z2 B2 | c2 c2 e4- | e4 d4 |[M:2/2] z2 c2 B2 G2 | B8 | c4 c4 | d4 B4 | A2 B2 c4 | %10
w: sguar-|do un|fa be- a\-|* to|un fa be-|a-|to hor|qual fos-|se~il mio sta-|
 d4 z2 d2- | d2 d2 c4 |"^Beatus homo - Lasso" d2 c2 c4- | c4 =B4 | z2 c2 c4 | d4 (edcB | %16
w: to, hor|* qual fos-|se~il mio sta\-|* to|a- man-|ti,~u- di\- * * *|
 A2 G2 A4) | G2 B2 B2 c2 | _A8 | G8- | G4 z4 |: z2 B2 A2 G2 | F2 G2 A2 A2 | B2 F2 G4 | F4 z2 B2 | %25
w: |te, a- man- ti,~u-|di-|te||quan- d'in- vo-|lai con que- ste|lab- bia~ar- di-|te, quan-|
 B2 A2 B2 d2 | c2 c2 B2 d2 | c8 | A4 d4 | =B8 | c4 z2 G2 | _A8 | G4 e4- | e4 d4- | d2 c2 d2 B2 | %35
w: d'in- vo- lai con|que- ste lab- bia~ar-|di-|te un|dol-|ce, un|dol-|ce ahi|* nol|* vo di- re|
 z4 z2 d2 | c2 B2 c2 d2 | (GABG A4) ||1 G4 z2 G2 | F2 D2 E2 E2 | D4 G4 | z8 :|2 G4 z2 G2 | %43
w: ch'el-|la non se n'a|di\- * * * *|re, ch'el-|la non se n'a|di- re.||re, ch'el-|
 F2 D2 (EFGA || B3 c d2) c2 | (d2 e2- ed c2- | c2 =BA B4) | c8 |] %48
w: la non se * * *|* * * n'a|di\- * * * *||re.|
V:2
 z8 | z4 C4 | G8 | E4 z2 E2 | G2 G2 (B4- |[M:2/2] B2 A2 G4- | G4) F4 | z4 F4- | F2 D2 G4 | %9
w: |S'un|sguar-|do un|fa be- a\-||* to|hor|* qual fos-|
 F2 G2 E4 | D8 | B4 G2 G2 | G2 E2 C4 | D4 z2 G2 | G4 A4 | (BAGF EFGE | F2 G4 ^F2) | G4 z2 G2 | %18
w: se~il mio sta-|to,|hor qual fos-|se~il mio sta-|to a-|man- ti,~u-|di\- * * * * * * *||te, a-|
 F2 F2 (_AGFE | D2 C2 D4) | C4 z2 F2 |: E2 D2 C2 C2 | D2 E2 F2 D2 | (G2 F4 =E2) | F2 D2 C2 B,2 | %25
w: man- ti,~u- di\- * * *||te quand'|in- vo- lai con|que- ste lab- bia~ar-|di\- * *|te, quand' in- vo-|
 (F3 E D4) | z2 F2 F2 B2 | G2 _A2 G4 | F8 | z4 D4 | =E8 | F8 | B8- | B4 B4- | B2 A2 B2 G2 | %35
w: lai * *|con que- ste|lab- bia~ar- di-|te|un|dol-|ce|ahi|* nol|* vo di- re|
 z4 z2 B2 | A2 G2 F4 | E2 (G3 ^F/=E/ !courtesy!^F2) ||1 G2 G2 C2 E2 | D2 D4 (C2- | %40
w: ch'el-|la non se|n'a di\- * * *|re, ch'el- la non|se n'a di\-|
 C=B,/A,/ !courtesy!=B,2) C4 | z4 F4 :|2 G2 G2 C2 E2 | D2 D2 G4 || D6 G2 | B2 B2 E3 F | G8 | G8 |] %48
w: * * * * re.|Quand'|re, ch'el- la non|se n'a di-|re, ch'el-|la non se n'a|di-|re.|
V:3
 z8 | z8 | z4 G4 | c8 | B4 z2 B2 |[M:2/2][K:treble-8] c2 c2 (e4- | e2 dc d4) | c8 | z8 | z8 | %10
w: ||S'un|sguar-|do un|fa be- a\-||to|||
 f6 d2 | g4 e4 | d2 (g4 e2) | g8 | =e4 f4 | B4 c4 | d8 | B4 e4 | c4 (fedc | =B2 c4 B2) | %20
w: hor qual|fos- se~il|mio sta\- *|to|a- man-|ti,~u- di-|te,|a- man-|ti,~u- di\- * * *||
 c2 e2 d2 c2 |: B4 z4 | z6 f2 | e2 d2 c4 | z6 e2 | d2 c2 B2 B2 | c2 c2 d4 | =e2 f4 e2 | f4 d4- | %29
w: te quand' in- vo-|lai|quand'|in- vo- lai,|quand'|in- vo- lai con|que- ste lab-|bia~ar- di- *|te un|
 d4 g4- | g4 c4 | z2 c2 d4 | e4 g4- | g4 f4- | f2 f2 d2 e2 | z8 | z6 d2 | c2 B2 c2 d2 ||1 %38
w: * dol\-|* ce,|un dol-|ce ahi|* nol|* vo di- re||ch'el-|la non se n'a|
 (GABG AB c2- | c2 B2) c2 g2 | g4 =e4 | z2 e2 d2 c2 :|2 (GABG AB c2- | c2 =B2) c4 || z2 g2 f2 e2 | %45
w: di\- * * * * * *|* * re, n'a|di- re.|Quand' in- vo-|di\- * * * * * *|* * re,|ch'el- la non|
 f2 g2 (cdec | d8) | =e8 |] %48
w: se n'a- di\- * * *||re.|
V:4
 z8 | z8 | z8 | C,8 | G,8 |[M:2/2] F,4 z2 E,2 | G,2 G,2 (B,4- | B,2 A,G, A,4) | B,8 | z8 | %10
w: |||S'un|sguar-|do un|fa be- a\-||to||
 z4 B,4- | B,2 G,2 C4 | =B,2 C2 _A,4 | G,4 z2 G,2 | C4 F,4 | z8 | z4 D,4 | E,8 | F,8 | G,8 | %20
w: hor|* qual fos-|se~il mio sta-|to a-|man- ti,||a-|man-|ti,~u-|di-|
 C,2 C2 B,2 A,2 |: G,4 z4 | z8 | z8 | B,4 A,2 G,2 | F,2 F,2 G,2 G,2 | A,4 B,4 | C8 | D4 B,4 | G,8 | %30
w: te quand' in- vo-|lai|||quand' in- vo-|lai con que- ste|lab- bia~ar-|di-|te un|dol-|
 C8 | F,8 | E,4 E,4- | E,4 B,4- | B,2 F,2 B,2 E,2 | z8 | z8 | z8 ||1 z2 G,2 F,2 E,2 | %39
w: ce,|un|dol- c'ahi|* nol|* vo di- re||||ch'el- la non|
 F,2 G,2 (C,D,E,F, | G,4) C,4 | C4 B,2 A,2 :|2 z2 G,2 F,2 E,2 | F,2 G,2 (C,D,E,F, || %44
w: se n'a di\- * * *|* re.|Quand' in- vo-|ch'el- la non|se n'a di\- * * *|
 G,2) G,2 z2 C2 | B,2 G,2 _A,2 A,2 | G,8 | C,8 |] %48
w: * re, ch'el-|la non se n'a|di-|re.|

